svgs/solid/gauge-low.svg

<svg xmlns="http://www.w3.org/2000/svg" viewBox="0 0 512 512"><!--! Font Awesome Pro 6.2.0 by @fontawesome - https://fontawesome.com License - https://fontawesome.com/license (Commercial License) Copyright 2022 Fonticons, Inc. --><path d="M512 256c0 141.4-114.6 256-256 256S0 397.4 0 256S114.6 0 256 0S512 114.6 512 256zM288 96c0-17.7-14.3-32-32-32s-32 14.3-32 32s14.3 32 32 32s32-14.3 32-32zM256 416c35.3 0 64-28.7 64-64s-28.7-64-64-64c-.6 0-1.3 0-1.9 0L190 142.3c-5.3-12.1-19.5-17.6-31.6-12.3s-17.6 19.5-12.3 31.6l64.1 145.7C198.9 318.9 192 334.6 192 352c0 35.3 28.7 64 64 64zM128 256c0-17.7-14.3-32-32-32s-32 14.3-32 32s14.3 32 32 32s32-14.3 32-32zm288 32c17.7 0 32-14.3 32-32s-14.3-32-32-32s-32 14.3-32 32s14.3 32 32 32zM400 144c0-17.7-14.3-32-32-32s-32 14.3-32 32s14.3 32 32 32s32-14.3 32-32z"/></svg>

<svg xmlns="http://www.w3.org/2000/svg" viewBox="0 0 512 512"><!--! Font Awesome Pro 6.1.2 by @fontawesome - https://fontawesome.com License - https://fontawesome.com/license (Commercial License) Copyright 2022 Fonticons, Inc. --><path d="M512 256C512 397.4 397.4 512 256 512C114.6 512 0 397.4 0 256C0 114.6 114.6 0 256 0C397.4 0 512 114.6 512 256zM256 64C238.3 64 224 78.33 224 96C224 113.7 238.3 128 256 128C273.7 128 288 113.7 288 96C288 78.33 273.7 64 256 64zM256 416C291.3 416 320 387.3 320 352C320 316.7 291.3 288 256 288C255.4 288 254.7 288 254.1 288L189.1 142.3C184.6 130.2 170.5 124.7 158.3 130C146.2 135.4 140.7 149.5 146 161.7L210.1 307.4C198.9 318.9 192 334.6 192 352C192 387.3 220.7 416 256 416V416zM96 224C78.33 224 64 238.3 64 256C64 273.7 78.33 288 96 288C113.7 288 128 273.7 128 256C128 238.3 113.7 224 96 224zM416 288C433.7 288 448 273.7 448 256C448 238.3 433.7 224 416 224C398.3 224 384 238.3 384 256C384 273.7 398.3 288 416 288zM368 112C350.3 112 336 126.3 336 144C336 161.7 350.3 176 368 176C385.7 176 400 161.7 400 144C400 126.3 385.7 112 368 112z"/></svg>
